N0 (Filename: 10279.TAP)
N1 (Post processor: MachMotion Plasma by SigmaNEST)
N2 (Date: 6/24/2016)
N3 (Start Parameters)
N4 (Material: Type: MS, Thickness: 0.25)
N5 (Plasma: Pierce Height: .2, Pierce Time: .4)
N6 (Plasma: Cut Height: .15)
N7 (Plasma: Arc Voltage: , Amperage: 80)
N8 (End Parameters)
N9 G20 (Units:Inches)
N10 G90
N11 (Part: P61)
N12 M6 T1 (Plasma)
N13 G00 X1.8777 Y1.5527 F100.
N14 M63 P60
N15 M3
N16 G41 G01 X1.9277 Y1.5527 F100.
N17 G03 X2.0027 Y1.6277 I1.9277 J1.6277 F100.
N18 G03 X1.5027 Y2.1277 I1.5027 J1.6277 F100.
N19 G03 X1.0027 Y1.6277 I1.5027 J1.6277 F100.
N20 G03 X1.5027 Y1.1277 I1.5027 J1.6277 F100.
N21 G03 X2.0023 Y1.6077 I1.5027 J1.6277 F100.
N22 M62 P60
N23 M63 P40
N24 G03 X2.0027 Y1.6277 I1.5027 J1.6277 F100.
N25 G03 X1.9277 Y1.7027 I1.9277 J1.6277 F100.
N26 M62 P60
N27 M63 P40
N28 G01 X1.8777 Y1.7027 F100.
N29 M5
N30 G00 X2.6277 Y2.5527 F75.
N31 G40
N32 M62 P60
N33 M3
N34 G41 G01 X2.6777 Y2.5527 F75.
N35 G03 X2.7527 Y2.6277 I2.6777 J2.6277 F75.
N36 G03 X2.5027 Y2.8777 I2.5027 J2.6277 F75.
N37 G03 X2.2527 Y2.6277 I2.5027 J2.6277 F75.
N38 G03 X2.5027 Y2.3777 I2.5027 J2.6277 F75.
N39 G03 X2.7519 Y2.6077 I2.5027 J2.6277 F75.
N40 M62 P60
N41 M63 P40
N42 G03 X2.7527 Y2.6277 I2.5027 J2.6277 F75.
N43 G03 X2.6777 Y2.7027 I2.6777 J2.6277 F75.
N44 M62 P60
N45 M63 P40
N46 G01 X2.6277 Y2.7027 F75.
N47 M5
N48 G00 X2.6277 Y7.5527 F75.
N49 G40
N50 M62 P60
N51 M3
N52 G41 G01 X2.6777 Y7.5527 F75.
N53 G03 X2.7527 Y7.6277 I2.6777 J7.6277 F75.
N54 G03 X2.5027 Y7.8777 I2.5027 J7.6277 F75.
N55 G03 X2.2527 Y7.6277 I2.5027 J7.6277 F75.
N56 G03 X2.5027 Y7.3777 I2.5027 J7.6277 F75.
N57 G03 X2.7519 Y7.6077 I2.5027 J7.6277 F75.
N58 M62 P60
N59 M63 P40
N60 G03 X2.7527 Y7.6277 I2.5027 J7.6277 F75.
N61 G03 X2.6777 Y7.7027 I2.6777 J7.6277 F75.
N62 M62 P60
N63 M63 P40
N64 G01 X2.6277 Y7.7027 F75.
N65 M5
N66 G00 X1.8777 Y8.5527 F100.
N67 G40
N68 M63 P60
N69 M3
N70 G41 G01 X1.9277 Y8.5527 F100.
N71 G03 X2.0027 Y8.6277 I1.9277 J8.6277 F100.
N72 G03 X1.5027 Y9.1277 I1.5027 J8.6277 F100.
N73 G03 X1.0027 Y8.6277 I1.5027 J8.6277 F100.
N74 G03 X1.5027 Y8.1277 I1.5027 J8.6277 F100.
N75 G03 X2.0023 Y8.6077 I1.5027 J8.6277 F100.
N76 M62 P60
N77 M63 P40
N78 G03 X2.0027 Y8.6277 I1.5027 J8.6277 F100.
N79 G03 X1.9277 Y8.7027 I1.9277 J8.6277 F100.
N80 M62 P60
N81 M63 P40
N82 G01 X1.8777 Y8.7027 F100.
N83 M5
N84 G00 X8.8777 Y8.5527 F100.
N85 G40
N86 M63 P60
N87 M3
N88 G41 G01 X8.9277 Y8.5527 F100.
N89 G03 X9.0027 Y8.6277 I8.9277 J8.6277 F100.
N90 G03 X8.5027 Y9.1277 I8.5027 J8.6277 F100.
N91 G03 X8.0027 Y8.6277 I8.5027 J8.6277 F100.
N92 G03 X8.5027 Y8.1277 I8.5027 J8.6277 F100.
N93 G03 X9.0023 Y8.6077 I8.5027 J8.6277 F100.
N94 M62 P60
N95 M63 P40
N96 G03 X9.0027 Y8.6277 I8.5027 J8.6277 F100.
N97 G03 X8.9277 Y8.7027 I8.9277 J8.6277 F100.
N98 M62 P60
N99 M63 P40
N100 G01 X8.8777 Y8.7027 F100.
N101 M5
N102 G00 X7.6277 Y7.5527 F75.
N103 G40
N104 M62 P60
N105 M3
N106 G41 G01 X7.6777 Y7.5527 F75.
N107 G03 X7.7527 Y7.6277 I7.6777 J7.6277 F75.
N108 G03 X7.5027 Y7.8777 I7.5027 J7.6277 F75.
N109 G03 X7.2527 Y7.6277 I7.5027 J7.6277 F75.
N110 G03 X7.5027 Y7.3777 I7.5027 J7.6277 F75.
N111 G03 X7.7519 Y7.6077 I7.5027 J7.6277 F75.
N112 M62 P60
N113 M63 P40
N114 G03 X7.7527 Y7.6277 I7.5027 J7.6277 F75.
N115 G03 X7.6777 Y7.7027 I7.6777 J7.6277 F75.
N116 M62 P60
N117 M63 P40
N118 G01 X7.6277 Y7.7027 F75.
N119 M5
N120 G00 X7.3777 Y5.0527 F100.
N121 G40
N122 M63 P60
N123 M3
N124 G41 G01 X7.4277 Y5.0527 F100.
N125 G03 X7.5027 Y5.1277 I7.4277 J5.1277 F100.
N126 G03 X5.0027 Y7.6277 I5.0027 J5.1277 F100.
N127 G03 X2.5027 Y5.1277 I5.0027 J5.1277 F100.
N128 G03 X5.0027 Y2.6277 I5.0027 J5.1277 F100.
N129 G03 X7.5026 Y5.1077 I5.0027 J5.1277 F100.
N130 M62 P60
N131 M63 P40
N132 G03 X7.5027 Y5.1277 I5.0027 J5.1277 F100.
N133 G03 X7.4277 Y5.2027 I7.4277 J5.1277 F100.
N134 M62 P60
N135 M63 P40
N136 G01 X7.3777 Y5.2027 F100.
N137 M5
N138 G00 X7.6277 Y2.5527 F75.
N139 G40
N140 M62 P60
N141 M3
N142 G41 G01 X7.6777 Y2.5527 F75.
N143 G03 X7.7527 Y2.6277 I7.6777 J2.6277 F75.
N144 G03 X7.5027 Y2.8777 I7.5027 J2.6277 F75.
N145 G03 X7.2527 Y2.6277 I7.5027 J2.6277 F75.
N146 G03 X7.5027 Y2.3777 I7.5027 J2.6277 F75.
N147 G03 X7.7519 Y2.6077 I7.5027 J2.6277 F75.
N148 M62 P60
N149 M63 P40
N150 G03 X7.7527 Y2.6277 I7.5027 J2.6277 F75.
N151 G03 X7.6777 Y2.7027 I7.6777 J2.6277 F75.
N152 M62 P60
N153 M63 P40
N154 G01 X7.6277 Y2.7027 F75.
N155 M5
N156 G00 X8.8777 Y1.5527 F100.
N157 G40
N158 M63 P60
N159 M3
N160 G41 G01 X8.9277 Y1.5527 F100.
N161 G03 X9.0027 Y1.6277 I8.9277 J1.6277 F100.
N162 G03 X8.5027 Y2.1277 I8.5027 J1.6277 F100.
N163 G03 X8.0027 Y1.6277 I8.5027 J1.6277 F100.
N164 G03 X8.5027 Y1.1277 I8.5027 J1.6277 F100.
N165 G03 X9.0023 Y1.6077 I8.5027 J1.6277 F100.
N166 M62 P60
N167 M63 P40
N168 G03 X9.0027 Y1.6277 I8.5027 J1.6277 F100.
N169 G03 X8.9277 Y1.7027 I8.9277 J1.6277 F100.
N170 M62 P60
N171 M63 P40
N172 G01 X8.8777 Y1.7027 F100.
N173 M5
N174 G00 X9.0777 Y0.0027 F100.
N175 G40
N176 M63 P60
N177 M3
N178 G41 G01 X9.0777 Y0.0527 F100.
N179 G03 X9.0027 Y0.1277 I9.0027 J0.0527 F100.
N180 G01 X1.0027 Y0.1277 F100.
N181 G02 X0.0027 Y1.1277 I1.0027 J1.1277 F100.
N182 G01 X0.0027 Y9.1277 F100.
N183 G02 X1.0027 Y10.1277 I1.0027 J9.1277 F100.
N184 G01 X9.0027 Y10.1277 F100.
N185 G02 X10.0027 Y9.1277 I9.0027 J9.1277 F100.
N186 G01 X10.0027 Y1.1277 F100.
N187 G02 X9.0227 Y0.1279 I9.0027 J1.1277 F100.
N188 M62 P60
N189 M63 P40
N190 G02 X9.0027 Y0.1277 I9.0027 J1.1277 F100.
N191 G03 X8.9277 Y0.0527 I9.0027 J0.0527 F100.
N192 M62 P60
N193 M63 P40
N194 G01 X8.9277 Y0.0027 F100.
N195 M5
N196 G40
N197 M30
