(Machine type - MachMotion Lathe Canned Cycles) 
(Filename: C:\Mach4Dev\GCodeFiles\CannedCyclesTestFiles\LatheTest2.tap)
(Generated on 8/21/2015 at 12:10:31 PM)

%
G00 G18 G54 G40 G80 G90.1 (Safe Start Block)
%

(Starting Gcode for Turning Cycle: TurnCycle-0)
([Xi, Zi] = [3, 0]; [Xf, Zf] = [2, -2]; Z- Direction; OD)
(Roughing)

%
G00 G18 G54 G40 G80 G90.1 (Safe Start Block)
%
T0101
G99 (Feed per Revolution)
G96 S500 (Constant Surface Speed)
M03 (Spindle Forward)
M08 (Flood)
G00 X3.1000 Z0.1000 (Rapid move to Clearance Height)
G01 X2.9500 F0.0016
G01 Z-1.9800 F0.0016
G01 X3.0000 Z-1.9800 F0.0016
G00 X3.1000 Z-1.8800
G00 Z0.1000
G00 X3.0500 Z0.1000 (Rapid move to Clearance Height)
G01 X2.9000 F0.0016
G01 Z-1.9800 F0.0016
G01 X2.9500 Z-1.9800 F0.0016
G00 X3.0500 Z-1.8800
G00 Z0.1000
G00 X3.0000 Z0.1000 (Rapid move to Clearance Height)
G01 X2.8500 F0.0016
G01 Z-1.9800 F0.0016
G01 X2.9000 Z-1.9800 F0.0016
G00 X3.0000 Z-1.8800
G00 Z0.1000
G00 X2.9500 Z0.1000 (Rapid move to Clearance Height)
G01 X2.8000 F0.0016
G01 Z-1.9800 F0.0016
G01 X2.8500 Z-1.9800 F0.0016
G00 X2.9500 Z-1.8800
G00 Z0.1000
G00 X2.9000 Z0.1000 (Rapid move to Clearance Height)
G01 X2.7500 F0.0016
G01 Z-1.9800 F0.0016
G01 X2.8000 Z-1.9800 F0.0016
G00 X2.9000 Z-1.8800
G00 Z0.1000
G00 X2.8500 Z0.1000 (Rapid move to Clearance Height)
G01 X2.7000 F0.0016
G01 Z-1.9800 F0.0016
G01 X2.7500 Z-1.9800 F0.0016
G00 X2.8500 Z-1.8800
G00 Z0.1000
G00 X2.8000 Z0.1000 (Rapid move to Clearance Height)
G01 X2.6500 F0.0016
G01 Z-1.9800 F0.0016
G01 X2.7000 Z-1.9800 F0.0016
G00 X2.8000 Z-1.8800
G00 Z0.1000
G00 X2.7500 Z0.1000 (Rapid move to Clearance Height)
G01 X2.6000 F0.0016
G01 Z-1.9800 F0.0016
G01 X2.6500 Z-1.9800 F0.0016
G00 X2.7500 Z-1.8800
G00 Z0.1000
G00 X2.7000 Z0.1000 (Rapid move to Clearance Height)
G01 X2.5500 F0.0016
G01 Z-1.9800 F0.0016
G01 X2.6000 Z-1.9800 F0.0016
G00 X2.7000 Z-1.8800
G00 Z0.1000
G00 X2.6500 Z0.1000 (Rapid move to Clearance Height)
G01 X2.5000 F0.0016
G01 Z-1.9800 F0.0016
G01 X2.5500 Z-1.9800 F0.0016
G00 X2.6500 Z-1.8800
G00 Z0.1000
G00 X2.6000 Z0.1000 (Rapid move to Clearance Height)
G01 X2.4500 F0.0016
G01 Z-1.9800 F0.0016
G01 X2.5000 Z-1.9800 F0.0016
G00 X2.6000 Z-1.8800
G00 Z0.1000
G00 X2.5500 Z0.1000 (Rapid move to Clearance Height)
G01 X2.4000 F0.0016
G01 Z-1.9800 F0.0016
G01 X2.4500 Z-1.9800 F0.0016
G00 X2.5500 Z-1.8800
G00 Z0.1000
G00 X2.5000 Z0.1000 (Rapid move to Clearance Height)
G01 X2.3500 F0.0016
G01 Z-1.9800 F0.0016
G01 X2.4000 Z-1.9800 F0.0016
G00 X2.5000 Z-1.8800
G00 Z0.1000
G00 X2.4500 Z0.1000 (Rapid move to Clearance Height)
G01 X2.3000 F0.0016
G01 Z-1.9800 F0.0016
G01 X2.3500 Z-1.9800 F0.0016
G00 X2.4500 Z-1.8800
G00 Z0.1000
G00 X2.4000 Z0.1000 (Rapid move to Clearance Height)
G01 X2.2500 F0.0016
G01 Z-1.9800 F0.0016
G01 X2.3000 Z-1.9800 F0.0016
G00 X2.4000 Z-1.8800
G00 Z0.1000
G00 X2.3500 Z0.1000 (Rapid move to Clearance Height)
G01 X2.2000 F0.0016
G01 Z-1.9800 F0.0016
G01 X2.2500 Z-1.9800 F0.0016
G00 X2.3500 Z-1.8800
G00 Z0.1000
G00 X2.3000 Z0.1000 (Rapid move to Clearance Height)
G01 X2.1500 F0.0016
G01 Z-1.9800 F0.0016
G01 X2.2000 Z-1.9800 F0.0016
G00 X2.3000 Z-1.8800
G00 Z0.1000
G00 X2.2500 Z0.1000 (Rapid move to Clearance Height)
G01 X2.1000 F0.0016
G01 Z-1.9800 F0.0016
G01 X2.1500 Z-1.9800 F0.0016
G00 X2.2500 Z-1.8800
G00 Z0.1000
G00 X2.2000 Z0.1000 (Rapid move to Clearance Height)
G01 X2.0500 F0.0016
G01 Z-1.9800 F0.0016
G01 X2.1000 Z-1.9800 F0.0016
G00 X2.2000 Z-1.8800
G00 Z0.1000
G00 X2.1400 Z0.1000 (Rapid move to Clearance Height)
G01 X2.0400 F0.0016
G01 Z-1.9800 F0.0016
G01 X2.0500 Z-1.9800 F0.0016
G00 X2.1400 Z-1.8800
G00 Z0.1000
(Finishing)

%
G00 G18 G54 G40 G80 G90.1 (Safe Start Block)
%
T0101
G99 (Feed per Revolution)
G96 S500 (Constant Surface Speed)
M03 (Spindle Forward)
M08 (Flood)
G00 X3.1000 Z0.1000
G00 X2.0000
G00 Z0.0210
G01 X2.0000 Z0.0000 F0.0008
G01 X2.0000 Z0.0000 F0.0008
G01 X2.0000 Z-2.0000 F0.0008
G01 X2.0000 Z-2.0000 F0.0008
G01 X2.0000 Z-2.0000 F0.0008
G01 X3.0000 Z-2.0000 F0.0008
G01 X3.0000 Z-2.0000 F0.0008
G01 X3.0000 Z-2.0000 F0.0008
G00 X3.1000 Z-1.9000
G40
G00 X3.1000 Z0.1000
(End Gcode for Turning Cycle: TurnCycle-0)

%
G00 G18 G54 G40 G80 G90.1 (Safe Start Block)
%

(Starting Gcode for Taper Cycle: TaperCycle-0)
([Xi, Zi] = [2, 0]; [Xf, Zf] = [0, -0.5774]; Angle = 1.0472 Radians; Z- Direction; OD)
(Roughing)

%
G00 G18 G54 G40 G80 G90.1 (Safe Start Block)
%
T0101
G99 (Feed per Revolution)
G96 S500 (Constant Surface Speed)
M03 (Spindle Forward)
M08 (Flood)
G00 X2.1000 Z0.1000 (Rapid move to Clearance Height)
G01 Z-0.0500 F0.0016
G01 X0.2144 F0.0016
G01 X0.0412 Z0.0000 F0.0016
G00 X0.3144 Z0.1000
G00 X2.1000
G00 X2.1000 Z0.0500 (Rapid move to Clearance Height)
G01 Z-0.1000 F0.0016
G01 X0.3876 F0.0016
G01 X0.2144 Z-0.0500 F0.0016
G00 X0.4876 Z0.0500
G00 X2.1000
G00 X2.1000 Z0.0000 (Rapid move to Clearance Height)
G01 Z-0.1500 F0.0016
G01 X0.5608 F0.0016
G01 X0.3876 Z-0.1000 F0.0016
G00 X0.6608 Z0.0000
G00 X2.1000
G00 X2.1000 Z-0.0500 (Rapid move to Clearance Height)
G01 Z-0.2000 F0.0016
G01 X0.7340 F0.0016
G01 X0.5608 Z-0.1500 F0.0016
G00 X0.8340 Z-0.0500
G00 X2.1000
G00 X2.1000 Z-0.1000 (Rapid move to Clearance Height)
G01 Z-0.2500 F0.0016
G01 X0.9072 F0.0016
G01 X0.7340 Z-0.2000 F0.0016
G00 X1.0072 Z-0.1000
G00 X2.1000
G00 X2.1000 Z-0.1500 (Rapid move to Clearance Height)
G01 Z-0.3000 F0.0016
G01 X1.0803 F0.0016
G01 X0.9072 Z-0.2500 F0.0016
G00 X1.1803 Z-0.1500
G00 X2.1000
G00 X2.1000 Z-0.2000 (Rapid move to Clearance Height)
G01 Z-0.3500 F0.0016
G01 X1.2535 F0.0016
G01 X1.0803 Z-0.3000 F0.0016
G00 X1.3535 Z-0.2000
G00 X2.1000
G00 X2.1000 Z-0.2500 (Rapid move to Clearance Height)
G01 Z-0.4000 F0.0016
G01 X1.4267 F0.0016
G01 X1.2535 Z-0.3500 F0.0016
G00 X1.5267 Z-0.2500
G00 X2.1000
G00 X2.1000 Z-0.3000 (Rapid move to Clearance Height)
G01 Z-0.4500 F0.0016
G01 X1.5999 F0.0016
G01 X1.4267 Z-0.4000 F0.0016
G00 X1.6999 Z-0.3000
G00 X2.1000
G00 X2.1000 Z-0.3500 (Rapid move to Clearance Height)
G01 Z-0.5000 F0.0016
G01 X1.7731 F0.0016
G01 X1.5999 Z-0.4500 F0.0016
G00 X1.8731 Z-0.3500
G00 X2.1000
G00 X2.1000 Z-0.4000 (Rapid move to Clearance Height)
G01 Z-0.5500 F0.0016
G01 X1.9463 F0.0016
G01 X1.7731 Z-0.5000 F0.0016
G00 X2.0463 Z-0.4000
G00 X2.1000
G00 X2.1000 Z-0.4568 (Rapid move to Clearance Height)
G01 Z-0.5568 F0.0016
G01 X1.9698 F0.0016
G01 X1.9463 Z-0.5500 F0.0016
G00 X2.0698 Z-0.4568
G00 X2.1000
(Finishing)

%
G00 G18 G54 G40 G80 G90.1 (Safe Start Block)
%
T0101
G99 (Feed per Revolution)
G96 S500 (Constant Surface Speed)
M03 (Spindle Forward)
M08 (Flood)
G41
G00 X2.1000 Z0.1000
G00 Z-0.5774
G00 X2.0412
G01 X2.0000 Z-0.5774 F0.0008
G01 X0.0000 Z0.0000 F0.0008
G00 X0.1000 Z0.1000
G40
G00 X2.1000 Z0.1000
(End Gcode for Taper Cycle: TaperCycle-0)

%
G00 G18 G54 G40 G80 G90.1 (Safe Start Block)
%

(Starting Gcode for Rounding Cycle: RoundingCycle-0)
([Xi, Zi] = [3, -2.5]; [Xf, Zf] = [2, -2]; Radius = 1; Z- Direction; OD)
(2, -3)
(Roughing)

%
G00 G18 G54 G40 G80 G90.1 (Safe Start Block)
%
T0101
G99 (Feed per Revolution)
G96 S500 (Constant Surface Speed)
M03 (Spindle Forward)
M08 (Flood)
G00 X3.1000 Z-1.9000 (Rapid move to Clearance Height)
G01 X2.9500 F0.0016
G01 Z-2.3098 F0.0016
G03 X3.0000 Z-2.4022 I1.0071 K-2.9859 F0.0016
G00 X3.1000 Z-2.2098
G00 Z-1.9000
G00 X3.0500 Z-1.9000 (Rapid move to Clearance Height)
G01 X2.9000 F0.0016
G01 Z-2.2540 F0.0016
G03 X2.9500 Z-2.3098 I1.0071 K-2.9859 F0.0016
G00 X3.0500 Z-2.1540
G00 Z-1.9000
G00 X3.0000 Z-1.9000 (Rapid move to Clearance Height)
G01 X2.8500 F0.0016
G01 Z-2.2115 F0.0016
G03 X2.9000 Z-2.2540 I1.0071 K-2.9859 F0.0016
G00 X3.0000 Z-2.1115
G00 Z-1.9000
G00 X2.9500 Z-1.9000 (Rapid move to Clearance Height)
G01 X2.8000 F0.0016
G01 Z-2.1767 F0.0016
G03 X2.8500 Z-2.2115 I1.0071 K-2.9859 F0.0016
G00 X2.9500 Z-2.0767
G00 Z-1.9000
G00 X2.9000 Z-1.9000 (Rapid move to Clearance Height)
G01 X2.7500 F0.0016
G01 Z-2.1474 F0.0016
G03 X2.8000 Z-2.1767 I1.0071 K-2.9859 F0.0016
G00 X2.9000 Z-2.0474
G00 Z-1.9000
G00 X2.8500 Z-1.9000 (Rapid move to Clearance Height)
G01 X2.7000 F0.0016
G01 Z-2.1221 F0.0016
G03 X2.7500 Z-2.1474 I1.0071 K-2.9859 F0.0016
G00 X2.8500 Z-2.0221
G00 Z-1.9000
G00 X2.8000 Z-1.9000 (Rapid move to Clearance Height)
G01 X2.6500 F0.0016
G01 Z-2.1000 F0.0016
G03 X2.7000 Z-2.1221 I1.0071 K-2.9859 F0.0016
G00 X2.8000 Z-2.0000
G00 Z-1.9000
G00 X2.7500 Z-1.9000 (Rapid move to Clearance Height)
G01 X2.6000 F0.0016
G01 Z-2.0807 F0.0016
G03 X2.6500 Z-2.1000 I1.0071 K-2.9859 F0.0016
G00 X2.7500 Z-1.9807
G00 Z-1.9000
G00 X2.7000 Z-1.9000 (Rapid move to Clearance Height)
G01 X2.5500 F0.0016
G01 Z-2.0638 F0.0016
G03 X2.6000 Z-2.0807 I1.0071 K-2.9859 F0.0016
G00 X2.7000 Z-1.9638
G00 Z-1.9000
G00 X2.6500 Z-1.9000 (Rapid move to Clearance Height)
G01 X2.5000 F0.0016
G01 Z-2.0489 F0.0016
G03 X2.5500 Z-2.0638 I1.0071 K-2.9859 F0.0016
G00 X2.6500 Z-1.9489
G00 Z-1.9000
G00 X2.6000 Z-1.9000 (Rapid move to Clearance Height)
G01 X2.4500 F0.0016
G01 Z-2.0359 F0.0016
G03 X2.5000 Z-2.0489 I1.0071 K-2.9859 F0.0016
G00 X2.6000 Z-1.9359
G00 Z-1.9000
G00 X2.5500 Z-1.9000 (Rapid move to Clearance Height)
G01 X2.4000 F0.0016
G01 Z-2.0246 F0.0016
G03 X2.4500 Z-2.0359 I1.0071 K-2.9859 F0.0016
G00 X2.5500 Z-1.9246
G00 Z-1.9000
G00 X2.5000 Z-1.9000 (Rapid move to Clearance Height)
G01 X2.3500 F0.0016
G01 Z-2.0150 F0.0016
G03 X2.4000 Z-2.0246 I1.0071 K-2.9859 F0.0016
G00 X2.5000 Z-1.9150
G00 Z-1.9000
G00 X2.4500 Z-1.9000 (Rapid move to Clearance Height)
G01 X2.3000 F0.0016
G01 Z-2.0068 F0.0016
G03 X2.3500 Z-2.0150 I1.0071 K-2.9859 F0.0016
G00 X2.4500 Z-1.9068
G00 Z-1.9000
G00 X2.4000 Z-1.9000 (Rapid move to Clearance Height)
G01 X2.2500 F0.0016
G01 Z-2.0000 F0.0016
G03 X2.3000 Z-2.0068 I1.0071 K-2.9859 F0.0016
G00 X2.4000 Z-1.9000
G00 Z-1.9000
G00 X2.3500 Z-1.9000 (Rapid move to Clearance Height)
G01 X2.2000 F0.0016
G01 Z-1.9946 F0.0016
G03 X2.2500 Z-2.0000 I1.0071 K-2.9859 F0.0016
G00 X2.3500 Z-1.8946
G00 Z-1.9000
G00 X2.3000 Z-1.9000 (Rapid move to Clearance Height)
G01 X2.1500 F0.0016
G01 Z-1.9905 F0.0016
G03 X2.2000 Z-1.9946 I1.0071 K-2.9859 F0.0016
G00 X2.3000 Z-1.8905
G00 Z-1.9000
G00 X2.2500 Z-1.9000 (Rapid move to Clearance Height)
G01 X2.1000 F0.0016
G01 Z-1.9877 F0.0016
G03 X2.1500 Z-1.9905 I1.0071 K-2.9859 F0.0016
G00 X2.2500 Z-1.8877
G00 Z-1.9000
G00 X2.2000 Z-1.9000 (Rapid move to Clearance Height)
G01 X2.0500 F0.0016
G01 Z-1.9862 F0.0016
G03 X2.1000 Z-1.9877 I1.0071 K-2.9859 F0.0016
G00 X2.2000 Z-1.8862
G00 Z-1.9000
G00 X2.1400 Z-1.9000 (Rapid move to Clearance Height)
G01 X2.0400 F0.0016
G01 Z-1.9861 F0.0016
G03 X2.0500 Z-1.9862 I1.0071 K-2.9859 F0.0016
G00 X2.1400 Z-1.8861
G00 Z-1.9000
(Finishing)

%
G00 G18 G54 G40 G80 G90.1 (Safe Start Block)
%
T0101
G99 (Feed per Revolution)
G96 S500 (Constant Surface Speed)
M03 (Spindle Forward)
M08 (Flood)
G41
G00 X3.1000 Z-1.9000
G00 X2.0000
G00 Z-1.9859
G01 X2.0000 Z-2.0000 F0.0008
G03 X3.0000 Z-2.5000 I1.0000 K-2.5000 F0.0008
G00 X3.1000 Z-2.4000
G40
G00 X3.1000 Z-1.9000
(End Gcode for Rounding Cycle: RoundingCycle-0)

%
G00 G18 G54 G40 G80 G90.1 (Safe Start Block)
%

(Starting Gcode for Rounding Cycle: RoundingCycle-1)
([Xi, Zi] = [2, -1]; [Xf, Zf] = [1, -0.287]; Radius = 2; Z- Direction; OD)
(0.025886130620585, -2.16037022068)
(Roughing)

%
G00 G18 G54 G40 G80 G90.1 (Safe Start Block)
%
T0101
G99 (Feed per Revolution)
G96 S500 (Constant Surface Speed)
M03 (Spindle Forward)
M08 (Flood)
G00 X2.1000 Z-0.1870 (Rapid move to Clearance Height)
G01 X1.9500 F0.0016
G01 Z-0.8496 F0.0016
G03 X2.0000 Z-0.9472 I0.0200 K-2.1462 F0.0016
G00 X2.1000 Z-0.7496
G00 Z-0.1870
G00 X2.0500 Z-0.1870 (Rapid move to Clearance Height)
G01 X1.9000 F0.0016
G01 Z-0.7786 F0.0016
G03 X1.9500 Z-0.8496 I0.0200 K-2.1462 F0.0016
G00 X2.0500 Z-0.6786
G00 Z-0.1870
G00 X2.0000 Z-0.1870 (Rapid move to Clearance Height)
G01 X1.8500 F0.0016
G01 Z-0.7208 F0.0016
G03 X1.9000 Z-0.7786 I0.0200 K-2.1462 F0.0016
G00 X2.0000 Z-0.6208
G00 Z-0.1870
G00 X1.9500 Z-0.1870 (Rapid move to Clearance Height)
G01 X1.8000 F0.0016
G01 Z-0.6712 F0.0016
G03 X1.8500 Z-0.7208 I0.0200 K-2.1462 F0.0016
G00 X1.9500 Z-0.5712
G00 Z-0.1870
G00 X1.9000 Z-0.1870 (Rapid move to Clearance Height)
G01 X1.7500 F0.0016
G01 Z-0.6276 F0.0016
G03 X1.8000 Z-0.6712 I0.0200 K-2.1462 F0.0016
G00 X1.9000 Z-0.5276
G00 Z-0.1870
G00 X1.8500 Z-0.1870 (Rapid move to Clearance Height)
G01 X1.7000 F0.0016
G01 Z-0.5884 F0.0016
G03 X1.7500 Z-0.6276 I0.0200 K-2.1462 F0.0016
G00 X1.8500 Z-0.4884
G00 Z-0.1870
G00 X1.8000 Z-0.1870 (Rapid move to Clearance Height)
G01 X1.6500 F0.0016
G01 Z-0.5529 F0.0016
G03 X1.7000 Z-0.5884 I0.0200 K-2.1462 F0.0016
G00 X1.8000 Z-0.4529
G00 Z-0.1870
G00 X1.7500 Z-0.1870 (Rapid move to Clearance Height)
G01 X1.6000 F0.0016
G01 Z-0.5204 F0.0016
G03 X1.6500 Z-0.5529 I0.0200 K-2.1462 F0.0016
G00 X1.7500 Z-0.4204
G00 Z-0.1870
G00 X1.7000 Z-0.1870 (Rapid move to Clearance Height)
G01 X1.5500 F0.0016
G01 Z-0.4905 F0.0016
G03 X1.6000 Z-0.5204 I0.0200 K-2.1462 F0.0016
G00 X1.7000 Z-0.3905
G00 Z-0.1870
G00 X1.6500 Z-0.1870 (Rapid move to Clearance Height)
G01 X1.5000 F0.0016
G01 Z-0.4628 F0.0016
G03 X1.5500 Z-0.4905 I0.0200 K-2.1462 F0.0016
G00 X1.6500 Z-0.3628
G00 Z-0.1870
G00 X1.6000 Z-0.1870 (Rapid move to Clearance Height)
G01 X1.4500 F0.0016
G01 Z-0.4370 F0.0016
G03 X1.5000 Z-0.4628 I0.0200 K-2.1462 F0.0016
G00 X1.6000 Z-0.3370
G00 Z-0.1870
G00 X1.5500 Z-0.1870 (Rapid move to Clearance Height)
G01 X1.4000 F0.0016
G01 Z-0.4130 F0.0016
G03 X1.4500 Z-0.4370 I0.0200 K-2.1462 F0.0016
G00 X1.5500 Z-0.3130
G00 Z-0.1870
G00 X1.5000 Z-0.1870 (Rapid move to Clearance Height)
G01 X1.3500 F0.0016
G01 Z-0.3906 F0.0016
G03 X1.4000 Z-0.4130 I0.0200 K-2.1462 F0.0016
G00 X1.5000 Z-0.2906
G00 Z-0.1870
G00 X1.4500 Z-0.1870 (Rapid move to Clearance Height)
G01 X1.3000 F0.0016
G01 Z-0.3696 F0.0016
G03 X1.3500 Z-0.3906 I0.0200 K-2.1462 F0.0016
G00 X1.4500 Z-0.2696
G00 Z-0.1870
G00 X1.4000 Z-0.1870 (Rapid move to Clearance Height)
G01 X1.2500 F0.0016
G01 Z-0.3500 F0.0016
G03 X1.3000 Z-0.3696 I0.0200 K-2.1462 F0.0016
G00 X1.4000 Z-0.2500
G00 Z-0.1870
G00 X1.3500 Z-0.1870 (Rapid move to Clearance Height)
G01 X1.2000 F0.0016
G01 Z-0.3316 F0.0016
G03 X1.2500 Z-0.3500 I0.0200 K-2.1462 F0.0016
G00 X1.3500 Z-0.2316
G00 Z-0.1870
G00 X1.3000 Z-0.1870 (Rapid move to Clearance Height)
G01 X1.1500 F0.0016
G01 Z-0.3143 F0.0016
G03 X1.2000 Z-0.3316 I0.0200 K-2.1462 F0.0016
G00 X1.3000 Z-0.2143
G00 Z-0.1870
G00 X1.2500 Z-0.1870 (Rapid move to Clearance Height)
G01 X1.1000 F0.0016
G01 Z-0.2982 F0.0016
G03 X1.1500 Z-0.3143 I0.0200 K-2.1462 F0.0016
G00 X1.2500 Z-0.1982
G00 Z-0.1870
G00 X1.2000 Z-0.1870 (Rapid move to Clearance Height)
G01 X1.0500 F0.0016
G01 Z-0.2831 F0.0016
G03 X1.1000 Z-0.2982 I0.0200 K-2.1462 F0.0016
G00 X1.2000 Z-0.1831
G00 Z-0.1870
G00 X1.1400 Z-0.1870 (Rapid move to Clearance Height)
G01 X1.0400 F0.0016
G01 Z-0.2802 F0.0016
G03 X1.0500 Z-0.2831 I0.0200 K-2.1462 F0.0016
G00 X1.1400 Z-0.1802
G00 Z-0.1870
(Finishing)

%
G00 G18 G54 G40 G80 G90.1 (Safe Start Block)
%
T0101
G99 (Feed per Revolution)
G96 S500 (Constant Surface Speed)
M03 (Spindle Forward)
M08 (Flood)
G41
G00 X2.1000 Z-0.1870
G00 X1.0000
G00 Z-0.2689
G01 X1.0000 Z-0.2870 F0.0008
G03 X2.0000 Z-1.0000 I0.0129 K-1.1604 F0.0008
G00 X2.1000 Z-0.9000
G40
G00 X2.1000 Z-0.1870
(End Gcode for Rounding Cycle: RoundingCycle-1)

M30
%
(End Gcode file)
%
