(.../EAGLE-8.5.2/pcbgcode/pcb-gcode.ulp)
(Copyright 2005 - 2012 by John Johnson)
(See readme.txt for licensing terms.)
(This file generated from the board:)
(.../Documents/eagle/FirstSketch/circle.brd)
(Current profile is .../pcbgcode/profiles/generic.pp  )
(This file generated 1/17/18 4:41 PM)
(Settings from pcb-machine.h)
(spindle on time = 3.0000)
(  Tool Size)
(0.0070 )
(spindle speed = 30000.0000)
(tool change at 0.0000 0.0000 1.0000 )
(feed rate xy = F20.00 )
(feed rate z  = F10.00 )
(Z Axis Settings)
(  High     Up        Down     Drill)
(0.5000 	0.1000 	-0.0070 	-0.0320 )
(Settings from pcb-defaults.h)
(isolate min = 0.0010)
(isolate max = 0.0200)
(isolate step = 0.0050)
(Generated top outlines, top drill, bottom outlines, bottom drill, )
(Unit of measure: inch)
(Inch Mode)
G20
(Absolute Coordinates)
G90
S30000
G00 Z0.5000 
G00 X0.0000 Y0.0000 
M03
G04 P3.000000
G00 Z0.1000 
G00 X0.6763 Y0.4849 
G01 Z-0.0070 F10.00 
G01 X0.6598 Y0.5030 F20.00 
G01 X0.6446 Y0.5221 
G01 X0.6306 Y0.5421 
G01 X0.6180 Y0.5630 
G01 X0.6067 Y0.5847 
G01 X0.5968 Y0.6070 
G01 X0.5884 Y0.6299 
G01 X0.5814 Y0.6533 
G01 X0.5760 Y0.6772 
G01 X0.5721 Y0.7013 
G01 X0.5697 Y0.7256 
G01 X0.5689 Y0.7500 
G01 X0.5697 Y0.7744 
G01 X0.5721 Y0.7987 
G01 X0.5760 Y0.8228 
G01 X0.5814 Y0.8467 
G01 X0.5884 Y0.8701 
G01 X0.5968 Y0.8930 
G01 X0.6067 Y0.9153 
G01 X0.6180 Y0.9370 
G01 X0.6306 Y0.9579 
G01 X0.6446 Y0.9779 
G01 X0.6598 Y0.9970 
G01 X0.6763 Y1.0151 
G01 X0.6938 Y1.0321 
G01 X0.7124 Y1.0479 
G01 X0.7320 Y1.0625 
G01 X0.7525 Y1.0759 
G01 X0.7737 Y1.0878 
G01 X0.7958 Y1.0984 
G01 X0.8184 Y1.1076 
G01 X0.8416 Y1.1153 
G01 X0.8652 Y1.1215 
G01 X0.8892 Y1.1262 
G01 X0.9134 Y1.1293 
G01 X0.9378 Y1.1309 
G01 X0.9622 Y1.1309 
G01 X0.9866 Y1.1293 
G01 X1.0108 Y1.1262 
G01 X1.0348 Y1.1215 
G01 X1.0584 Y1.1153 
G01 X1.0816 Y1.1076 
G01 X1.1042 Y1.0984 
G01 X1.1263 Y1.0878 
G01 X1.1475 Y1.0759 
G01 X1.1680 Y1.0625 
G01 X1.1876 Y1.0479 
G01 X1.2062 Y1.0321 
G01 X1.2237 Y1.0151 
G01 X1.2402 Y0.9970 
G01 X1.2554 Y0.9779 
G01 X1.2694 Y0.9579 
G01 X1.2820 Y0.9370 
G01 X1.2933 Y0.9153 
G01 X1.3032 Y0.8930 
G01 X1.3116 Y0.8701 
G01 X1.3186 Y0.8467 
G01 X1.3240 Y0.8228 
G01 X1.3279 Y0.7987 
G01 X1.3303 Y0.7744 
G01 X1.3311 Y0.7500 
G01 X1.3303 Y0.7256 
G01 X1.3279 Y0.7013 
G01 X1.3240 Y0.6772 
G01 X1.3186 Y0.6533 
G01 X1.3116 Y0.6299 
G01 X1.3032 Y0.6070 
G01 X1.2933 Y0.5847 
G01 X1.2820 Y0.5630 
G01 X1.2694 Y0.5421 
G01 X1.2554 Y0.5221 
G01 X1.2402 Y0.5030 
G01 X1.2237 Y0.4849 
G01 X1.2062 Y0.4679 
G01 X1.1876 Y0.4521 
G01 X1.1680 Y0.4375 
G01 X1.1475 Y0.4241 
G01 X1.1263 Y0.4122 
G01 X1.1042 Y0.4016 
G01 X1.0816 Y0.3924 
G01 X1.0584 Y0.3847 
G01 X1.0348 Y0.3785 
G01 X1.0108 Y0.3738 
G01 X0.9866 Y0.3707 
G01 X0.9622 Y0.3691 
G01 X0.9378 Y0.3691 
G01 X0.9134 Y0.3707 
G01 X0.8892 Y0.3738 
G01 X0.8652 Y0.3785 
G01 X0.8416 Y0.3847 
G01 X0.8184 Y0.3924 
G01 X0.7958 Y0.4016 
G01 X0.7737 Y0.4122 
G01 X0.7525 Y0.4241 
G01 X0.7320 Y0.4375 
G01 X0.7124 Y0.4521 
G01 X0.6938 Y0.4679 
G01 X0.6763 Y0.4849 
G00 Z0.1000 
G00 X0.7057 Y0.5134 
G01 Z-0.0070 F10.00 
G01 X0.7057 Y0.5134 F20.00 
G01 X0.7214 Y0.4983 
G01 X0.7380 Y0.4841 
G01 X0.7554 Y0.4711 
G01 X0.7737 Y0.4592 
G01 X0.7927 Y0.4485 
G01 X0.8124 Y0.4390 
G01 X0.8326 Y0.4309 
G01 X0.8532 Y0.4240 
G01 X0.8743 Y0.4185 
G01 X0.8957 Y0.4143 
G01 X0.9173 Y0.4115 
G01 X0.9391 Y0.4101 
G01 X0.9609 Y0.4101 
G01 X0.9827 Y0.4115 
G01 X1.0043 Y0.4143 
G01 X1.0257 Y0.4185 
G01 X1.0468 Y0.4240 
G01 X1.0674 Y0.4309 
G01 X1.0876 Y0.4390 
G01 X1.1073 Y0.4485 
G01 X1.1263 Y0.4592 
G01 X1.1446 Y0.4711 
G01 X1.1620 Y0.4841 
G01 X1.1786 Y0.4983 
G01 X1.1943 Y0.5134 
G01 X1.2089 Y0.5296 
G01 X1.2225 Y0.5466 
G01 X1.2350 Y0.5645 
G01 X1.2463 Y0.5831 
G01 X1.2564 Y0.6025 
G01 X1.2652 Y0.6224 
G01 X1.2727 Y0.6428 
G01 X1.2789 Y0.6637 
G01 X1.2838 Y0.6850 
G01 X1.2873 Y0.7065 
G01 X1.2894 Y0.7282 
G01 X1.2901 Y0.7500 
G01 X1.2894 Y0.7718 
G01 X1.2873 Y0.7935 
G01 X1.2838 Y0.8150 
G01 X1.2789 Y0.8363 
G01 X1.2727 Y0.8572 
G01 X1.2652 Y0.8776 
G01 X1.2564 Y0.8975 
G01 X1.2463 Y0.9169 
G01 X1.2350 Y0.9355 
G01 X1.2225 Y0.9534 
G01 X1.2089 Y0.9704 
G01 X1.1943 Y0.9866 
G01 X1.1786 Y1.0017 
G01 X1.1620 Y1.0159 
G01 X1.1446 Y1.0289 
G01 X1.1263 Y1.0408 
G01 X1.1073 Y1.0515 
G01 X1.0876 Y1.0610 
G01 X1.0674 Y1.0691 
G01 X1.0468 Y1.0760 
G01 X1.0257 Y1.0815 
G01 X1.0043 Y1.0857 
G01 X0.9827 Y1.0885 
G01 X0.9609 Y1.0899 
G01 X0.9391 Y1.0899 
G01 X0.9173 Y1.0885 
G01 X0.8957 Y1.0857 
G01 X0.8743 Y1.0815 
G01 X0.8532 Y1.0760 
G01 X0.8326 Y1.0691 
G01 X0.8124 Y1.0610 
G01 X0.7927 Y1.0515 
G01 X0.7737 Y1.0408 
G01 X0.7554 Y1.0289 
G01 X0.7380 Y1.0159 
G01 X0.7214 Y1.0017 
G01 X0.7057 Y0.9866 
G01 X0.6911 Y0.9704 
G01 X0.6775 Y0.9534 
G01 X0.6650 Y0.9355 
G01 X0.6537 Y0.9169 
G01 X0.6436 Y0.8975 
G01 X0.6348 Y0.8776 
G01 X0.6273 Y0.8572 
G01 X0.6211 Y0.8363 
G01 X0.6162 Y0.8150 
G01 X0.6127 Y0.7935 
G01 X0.6106 Y0.7718 
G01 X0.6099 Y0.7500 
G01 X0.6106 Y0.7282 
G01 X0.6127 Y0.7065 
G01 X0.6162 Y0.6850 
G01 X0.6211 Y0.6637 
G01 X0.6273 Y0.6428 
G01 X0.6348 Y0.6224 
G01 X0.6436 Y0.6025 
G01 X0.6537 Y0.5831 
G01 X0.6650 Y0.5645 
G01 X0.6775 Y0.5466 
G01 X0.6911 Y0.5296 
G01 X0.7057 Y0.5134 
G00 Z0.1000 
G00 X0.6792 Y0.4749 
G01 Z-0.0070 F10.00 
G01 X0.6792 Y0.4749 F20.00 
G01 X0.6623 Y0.4926 
G01 X0.6465 Y0.5114 
G01 X0.6320 Y0.5311 
G01 X0.6188 Y0.5517 
G01 X0.6069 Y0.5731 
G01 X0.5963 Y0.5952 
G01 X0.5872 Y0.6180 
G01 X0.5796 Y0.6412 
G01 X0.5734 Y0.6649 
G01 X0.5688 Y0.6890 
G01 X0.5657 Y0.7133 
G01 X0.5641 Y0.7378 
G01 X0.5641 Y0.7622 
G01 X0.5657 Y0.7867 
G01 X0.5688 Y0.8110 
G01 X0.5734 Y0.8351 
G01 X0.5796 Y0.8588 
G01 X0.5872 Y0.8820 
G01 X0.5963 Y0.9048 
G01 X0.6069 Y0.9269 
G01 X0.6188 Y0.9483 
G01 X0.6320 Y0.9689 
G01 X0.6465 Y0.9886 
G01 X0.6623 Y1.0074 
G01 X0.6792 Y1.0251 
G01 X0.6972 Y1.0418 
G01 X0.7162 Y1.0572 
G01 X0.7362 Y1.0714 
G01 X0.7570 Y1.0843 
G01 X0.7786 Y1.0959 
G01 X0.8008 Y1.1061 
G01 X0.8237 Y1.1148 
G01 X0.8471 Y1.1221 
G01 X0.8709 Y1.1279 
G01 X0.8951 Y1.1321 
G01 X0.9194 Y1.1348 
G01 X0.9439 Y1.1360 
G01 X0.9684 Y1.1356 
G01 X0.9928 Y1.1337 
G01 X1.0170 Y1.1302 
G01 X1.0410 Y1.1252 
G01 X1.0646 Y1.1186 
G01 X1.0878 Y1.1106 
G01 X1.1104 Y1.1012 
G01 X1.1323 Y1.0903 
G01 X1.1535 Y1.0780 
G01 X1.1739 Y1.0645 
G01 X1.1934 Y1.0496 
G01 X1.2119 Y1.0336 
G01 X1.2294 Y1.0164 
G01 X1.2457 Y0.9982 
G01 X1.2609 Y0.9789 
G01 X1.2748 Y0.9587 
G01 X1.2874 Y0.9377 
G01 X1.2986 Y0.9159 
G01 X1.3084 Y0.8935 
G01 X1.3168 Y0.8705 
G01 X1.3237 Y0.8470 
G01 X1.3291 Y0.8231 
G01 X1.3329 Y0.7989 
G01 X1.3353 Y0.7745 
G01 X1.3361 Y0.7500 
G01 X1.3353 Y0.7255 
G01 X1.3329 Y0.7011 
G01 X1.3291 Y0.6769 
G01 X1.3237 Y0.6530 
G01 X1.3168 Y0.6295 
G01 X1.3084 Y0.6065 
G01 X1.2986 Y0.5841 
G01 X1.2874 Y0.5623 
G01 X1.2748 Y0.5413 
G01 X1.2609 Y0.5211 
G01 X1.2457 Y0.5018 
G01 X1.2294 Y0.4836 
G01 X1.2119 Y0.4664 
G01 X1.1934 Y0.4504 
G01 X1.1739 Y0.4355 
G01 X1.1535 Y0.4220 
G01 X1.1323 Y0.4097 
G01 X1.1104 Y0.3988 
G01 X1.0878 Y0.3894 
G01 X1.0646 Y0.3814 
G01 X1.0410 Y0.3748 
G01 X1.0170 Y0.3698 
G01 X0.9928 Y0.3663 
G01 X0.9684 Y0.3644 
G01 X0.9439 Y0.3640 
G01 X0.9194 Y0.3652 
G01 X0.8951 Y0.3679 
G01 X0.8709 Y0.3721 
G01 X0.8471 Y0.3779 
G01 X0.8237 Y0.3852 
G01 X0.8008 Y0.3939 
G01 X0.7786 Y0.4041 
G01 X0.7570 Y0.4157 
G01 X0.7362 Y0.4286 
G01 X0.7162 Y0.4428 
G01 X0.6972 Y0.4582 
G01 X0.6792 Y0.4749 
G00 Z0.1000 
G00 X0.7150 Y0.5112 
G01 Z-0.0070 F10.00 
G01 X0.7306 Y0.4968 F20.00 
G01 X0.7471 Y0.4834 
G01 X0.7644 Y0.4710 
G01 X0.7825 Y0.4598 
G01 X0.8012 Y0.4498 
G01 X0.8206 Y0.4410 
G01 X0.8404 Y0.4334 
G01 X0.8607 Y0.4271 
G01 X0.8814 Y0.4220 
G01 X0.9023 Y0.4184 
G01 X0.9234 Y0.4160 
G01 X0.9447 Y0.4150 
G01 X0.9659 Y0.4153 
G01 X0.9871 Y0.4170 
G01 X1.0082 Y0.4200 
G01 X1.0290 Y0.4244 
G01 X1.0495 Y0.4301 
G01 X1.0696 Y0.4370 
G01 X1.0892 Y0.4452 
G01 X1.1082 Y0.4547 
G01 X1.1266 Y0.4653 
G01 X1.1444 Y0.4771 
G01 X1.1613 Y0.4899 
G01 X1.1773 Y0.5039 
G01 X1.1925 Y0.5188 
G01 X1.2067 Y0.5346 
G01 X1.2198 Y0.5513 
G01 X1.2319 Y0.5689 
G01 X1.2428 Y0.5871 
G01 X1.2525 Y0.6060 
G01 X1.2611 Y0.6255 
G01 X1.2683 Y0.6455 
G01 X1.2743 Y0.6659 
G01 X1.2790 Y0.6866 
G01 X1.2824 Y0.7076 
G01 X1.2844 Y0.7287 
G01 X1.2851 Y0.7500 
G01 X1.2844 Y0.7713 
G01 X1.2824 Y0.7924 
G01 X1.2790 Y0.8134 
G01 X1.2743 Y0.8341 
G01 X1.2683 Y0.8545 
G01 X1.2611 Y0.8745 
G01 X1.2525 Y0.8940 
G01 X1.2428 Y0.9129 
G01 X1.2319 Y0.9311 
G01 X1.2198 Y0.9487 
G01 X1.2067 Y0.9654 
G01 X1.1925 Y0.9812 
G01 X1.1773 Y0.9961 
G01 X1.1613 Y1.0101 
G01 X1.1444 Y1.0229 
G01 X1.1266 Y1.0347 
G01 X1.1082 Y1.0453 
G01 X1.0892 Y1.0548 
G01 X1.0696 Y1.0630 
G01 X1.0495 Y1.0699 
G01 X1.0290 Y1.0756 
G01 X1.0082 Y1.0800 
G01 X0.9871 Y1.0830 
G01 X0.9659 Y1.0847 
G01 X0.9447 Y1.0850 
G01 X0.9234 Y1.0840 
G01 X0.9023 Y1.0816 
G01 X0.8814 Y1.0780 
G01 X0.8607 Y1.0729 
G01 X0.8404 Y1.0666 
G01 X0.8206 Y1.0590 
G01 X0.8012 Y1.0502 
G01 X0.7825 Y1.0402 
G01 X0.7644 Y1.0290 
G01 X0.7471 Y1.0166 
G01 X0.7306 Y1.0032 
G01 X0.7150 Y0.9888 
G01 X0.7003 Y0.9734 
G01 X0.6866 Y0.9571 
G01 X0.6740 Y0.9400 
G01 X0.6625 Y0.9221 
G01 X0.6522 Y0.9035 
G01 X0.6431 Y0.8843 
G01 X0.6352 Y0.8646 
G01 X0.6285 Y0.8444 
G01 X0.6232 Y0.8238 
G01 X0.6192 Y0.8029 
G01 X0.6165 Y0.7818 
G01 X0.6151 Y0.7606 
G01 X0.6151 Y0.7394 
G01 X0.6165 Y0.7182 
G01 X0.6192 Y0.6971 
G01 X0.6232 Y0.6762 
G01 X0.6285 Y0.6556 
G01 X0.6352 Y0.6354 
G01 X0.6431 Y0.6157 
G01 X0.6522 Y0.5965 
G01 X0.6625 Y0.5779 
G01 X0.6740 Y0.5600 
G01 X0.6866 Y0.5429 
G01 X0.7003 Y0.5266 
G01 X0.7150 Y0.5112 
G00 Z0.1000 
G00 X0.6649 Y0.4823 
G01 Z-0.0070 F10.00 
G01 X0.6487 Y0.5007 F20.00 
G01 X0.6336 Y0.5201 
G01 X0.6198 Y0.5405 
G01 X0.6073 Y0.5616 
G01 X0.5962 Y0.5835 
G01 X0.5864 Y0.6060 
G01 X0.5781 Y0.6292 
G01 X0.5712 Y0.6527 
G01 X0.5659 Y0.6767 
G01 X0.5620 Y0.7010 
G01 X0.5597 Y0.7254 
G01 X0.5589 Y0.7500 
G01 X0.5597 Y0.7746 
G01 X0.5620 Y0.7990 
G01 X0.5659 Y0.8233 
G01 X0.5712 Y0.8473 
G01 X0.5781 Y0.8708 
G01 X0.5864 Y0.8940 
G01 X0.5962 Y0.9165 
G01 X0.6073 Y0.9384 
G01 X0.6198 Y0.9595 
G01 X0.6336 Y0.9799 
G01 X0.6487 Y0.9993 
G01 X0.6649 Y1.0177 
G01 X0.6823 Y1.0351 
G01 X0.7007 Y1.0513 
G01 X0.7201 Y1.0664 
G01 X0.7405 Y1.0802 
G01 X0.7616 Y1.0927 
G01 X0.7835 Y1.1038 
G01 X0.8060 Y1.1136 
G01 X0.8292 Y1.1219 
G01 X0.8527 Y1.1288 
G01 X0.8767 Y1.1341 
G01 X0.9010 Y1.1380 
G01 X0.9254 Y1.1403 
G01 X0.9500 Y1.1411 
G01 X0.9746 Y1.1403 
G01 X0.9990 Y1.1380 
G01 X1.0233 Y1.1341 
G01 X1.0473 Y1.1288 
G01 X1.0708 Y1.1219 
G01 X1.0940 Y1.1136 
G01 X1.1165 Y1.1038 
G01 X1.1384 Y1.0927 
G01 X1.1595 Y1.0802 
G01 X1.1799 Y1.0664 
G01 X1.1993 Y1.0513 
G01 X1.2177 Y1.0351 
G01 X1.2351 Y1.0177 
G01 X1.2513 Y0.9993 
G01 X1.2664 Y0.9799 
G01 X1.2802 Y0.9595 
G01 X1.2927 Y0.9384 
G01 X1.3038 Y0.9165 
G01 X1.3136 Y0.8940 
G01 X1.3219 Y0.8708 
G01 X1.3288 Y0.8473 
G01 X1.3341 Y0.8233 
G01 X1.3380 Y0.7990 
G01 X1.3403 Y0.7746 
G01 X1.3411 Y0.7500 
G01 X1.3403 Y0.7254 
G01 X1.3380 Y0.7010 
G01 X1.3341 Y0.6767 
G01 X1.3288 Y0.6527 
G01 X1.3219 Y0.6292 
G01 X1.3136 Y0.6060 
G01 X1.3038 Y0.5835 
G01 X1.2927 Y0.5616 
G01 X1.2802 Y0.5405 
G01 X1.2664 Y0.5201 
G01 X1.2513 Y0.5007 
G01 X1.2351 Y0.4823 
G01 X1.2177 Y0.4649 
G01 X1.1993 Y0.4487 
G01 X1.1799 Y0.4336 
G01 X1.1595 Y0.4198 
G01 X1.1384 Y0.4073 
G01 X1.1165 Y0.3962 
G01 X1.0940 Y0.3864 
G01 X1.0708 Y0.3781 
G01 X1.0473 Y0.3712 
G01 X1.0233 Y0.3659 
G01 X0.9990 Y0.3620 
G01 X0.9746 Y0.3597 
G01 X0.9500 Y0.3589 
G01 X0.9254 Y0.3597 
G01 X0.9010 Y0.3620 
G01 X0.8767 Y0.3659 
G01 X0.8527 Y0.3712 
G01 X0.8292 Y0.3781 
G01 X0.8060 Y0.3864 
G01 X0.7835 Y0.3962 
G01 X0.7616 Y0.4073 
G01 X0.7405 Y0.4198 
G01 X0.7201 Y0.4336 
G01 X0.7007 Y0.4487 
G01 X0.6823 Y0.4649 
G01 X0.6649 Y0.4823 
G00 Z0.1000 
G00 X0.7241 Y0.5094 
G01 Z-0.0070 F10.00 
G01 X0.7396 Y0.4957 F20.00 
G01 X0.7560 Y0.4830 
G01 X0.7731 Y0.4713 
G01 X0.7910 Y0.4608 
G01 X0.8095 Y0.4514 
G01 X0.8285 Y0.4431 
G01 X0.8480 Y0.4361 
G01 X0.8679 Y0.4303 
G01 X0.8882 Y0.4258 
G01 X0.9086 Y0.4225 
G01 X0.9293 Y0.4206 
G01 X0.9500 Y0.4199 
G01 X0.9707 Y0.4206 
G01 X0.9914 Y0.4225 
G01 X1.0118 Y0.4258 
G01 X1.0321 Y0.4303 
G01 X1.0520 Y0.4361 
G01 X1.0715 Y0.4431 
G01 X1.0905 Y0.4514 
G01 X1.1090 Y0.4608 
G01 X1.1269 Y0.4713 
G01 X1.1440 Y0.4830 
G01 X1.1604 Y0.4957 
G01 X1.1759 Y0.5094 
G01 X1.1906 Y0.5241 
G01 X1.2043 Y0.5396 
G01 X1.2170 Y0.5560 
G01 X1.2287 Y0.5731 
G01 X1.2392 Y0.5910 
G01 X1.2486 Y0.6095 
G01 X1.2569 Y0.6285 
G01 X1.2639 Y0.6480 
G01 X1.2697 Y0.6679 
G01 X1.2742 Y0.6882 
G01 X1.2775 Y0.7086 
G01 X1.2794 Y0.7293 
G01 X1.2801 Y0.7500 
G01 X1.2794 Y0.7707 
G01 X1.2775 Y0.7914 
G01 X1.2742 Y0.8118 
G01 X1.2697 Y0.8321 
G01 X1.2639 Y0.8520 
G01 X1.2569 Y0.8715 
G01 X1.2486 Y0.8905 
G01 X1.2392 Y0.9090 
G01 X1.2287 Y0.9269 
G01 X1.2170 Y0.9440 
G01 X1.2043 Y0.9604 
G01 X1.1906 Y0.9759 
G01 X1.1759 Y0.9906 
G01 X1.1604 Y1.0043 
G01 X1.1440 Y1.0170 
G01 X1.1269 Y1.0287 
G01 X1.1090 Y1.0392 
G01 X1.0905 Y1.0486 
G01 X1.0715 Y1.0569 
G01 X1.0520 Y1.0639 
G01 X1.0321 Y1.0697 
G01 X1.0118 Y1.0742 
G01 X0.9914 Y1.0775 
G01 X0.9707 Y1.0794 
G01 X0.9500 Y1.0801 
G01 X0.9293 Y1.0794 
G01 X0.9086 Y1.0775 
G01 X0.8882 Y1.0742 
G01 X0.8679 Y1.0697 
G01 X0.8480 Y1.0639 
G01 X0.8285 Y1.0569 
G01 X0.8095 Y1.0486 
G01 X0.7910 Y1.0392 
G01 X0.7731 Y1.0287 
G01 X0.7560 Y1.0170 
G01 X0.7396 Y1.0043 
G01 X0.7241 Y0.9906 
G01 X0.7094 Y0.9759 
G01 X0.6957 Y0.9604 
G01 X0.6830 Y0.9440 
G01 X0.6713 Y0.9269 
G01 X0.6608 Y0.9090 
G01 X0.6514 Y0.8905 
G01 X0.6431 Y0.8715 
G01 X0.6361 Y0.8520 
G01 X0.6303 Y0.8321 
G01 X0.6258 Y0.8118 
G01 X0.6225 Y0.7914 
G01 X0.6206 Y0.7707 
G01 X0.6199 Y0.7500 
G01 X0.6206 Y0.7293 
G01 X0.6225 Y0.7086 
G01 X0.6258 Y0.6882 
G01 X0.6303 Y0.6679 
G01 X0.6361 Y0.6480 
G01 X0.6431 Y0.6285 
G01 X0.6514 Y0.6095 
G01 X0.6608 Y0.5910 
G01 X0.6713 Y0.5731 
G01 X0.6830 Y0.5560 
G01 X0.6957 Y0.5396 
G01 X0.7094 Y0.5241 
G01 X0.7241 Y0.5094 
G00 Z0.1000 
G00 X0.6613 Y0.4789 
G01 Z-0.0070 F10.00 
G01 X0.6448 Y0.4975 F20.00 
G01 X0.6296 Y0.5172 
G01 X0.6156 Y0.5378 
G01 X0.6029 Y0.5592 
G01 X0.5916 Y0.5814 
G01 X0.5818 Y0.6042 
G01 X0.5733 Y0.6276 
G01 X0.5664 Y0.6515 
G01 X0.5610 Y0.6758 
G01 X0.5571 Y0.7004 
G01 X0.5547 Y0.7251 
G01 X0.5539 Y0.7500 
G01 X0.5547 Y0.7749 
G01 X0.5571 Y0.7996 
G01 X0.5610 Y0.8242 
G01 X0.5664 Y0.8485 
G01 X0.5733 Y0.8724 
G01 X0.5818 Y0.8958 
G01 X0.5916 Y0.9186 
G01 X0.6029 Y0.9408 
G01 X0.6156 Y0.9622 
G01 X0.6296 Y0.9828 
G01 X0.6448 Y1.0025 
G01 X0.6613 Y1.0211 
G01 X0.6789 Y1.0387 
G01 X0.6975 Y1.0552 
G01 X0.7172 Y1.0704 
G01 X0.7378 Y1.0844 
G01 X0.7592 Y1.0971 
G01 X0.7814 Y1.1084 
G01 X0.8042 Y1.1182 
G01 X0.8276 Y1.1267 
G01 X0.8515 Y1.1336 
G01 X0.8758 Y1.1390 
G01 X0.9004 Y1.1429 
G01 X0.9251 Y1.1453 
G01 X0.9500 Y1.1461 
G01 X0.9749 Y1.1453 
G01 X0.9996 Y1.1429 
G01 X1.0242 Y1.1390 
G01 X1.0485 Y1.1336 
G01 X1.0724 Y1.1267 
G01 X1.0958 Y1.1182 
G01 X1.1186 Y1.1084 
G01 X1.1408 Y1.0971 
G01 X1.1622 Y1.0844 
G01 X1.1828 Y1.0704 
G01 X1.2025 Y1.0552 
G01 X1.2211 Y1.0387 
G01 X1.2387 Y1.0211 
G01 X1.2552 Y1.0025 
G01 X1.2704 Y0.9828 
G01 X1.2844 Y0.9622 
G01 X1.2971 Y0.9408 
G01 X1.3084 Y0.9186 
G01 X1.3182 Y0.8958 
G01 X1.3267 Y0.8724 
G01 X1.3336 Y0.8485 
G01 X1.3390 Y0.8242 
G01 X1.3429 Y0.7996 
G01 X1.3453 Y0.7749 
G01 X1.3461 Y0.7500 
G01 X1.3453 Y0.7251 
G01 X1.3429 Y0.7004 
G01 X1.3390 Y0.6758 
G01 X1.3336 Y0.6515 
G01 X1.3267 Y0.6276 
G01 X1.3182 Y0.6042 
G01 X1.3084 Y0.5814 
G01 X1.2971 Y0.5592 
G01 X1.2844 Y0.5378 
G01 X1.2704 Y0.5172 
G01 X1.2552 Y0.4975 
G01 X1.2387 Y0.4789 
G01 X1.2211 Y0.4613 
G01 X1.2025 Y0.4448 
G01 X1.1828 Y0.4296 
G01 X1.1622 Y0.4156 
G01 X1.1408 Y0.4029 
G01 X1.1186 Y0.3916 
G01 X1.0958 Y0.3818 
G01 X1.0724 Y0.3733 
G01 X1.0485 Y0.3664 
G01 X1.0242 Y0.3610 
G01 X0.9996 Y0.3571 
G01 X0.9749 Y0.3547 
G01 X0.9500 Y0.3539 
G01 X0.9251 Y0.3547 
G01 X0.9004 Y0.3571 
G01 X0.8758 Y0.3610 
G01 X0.8515 Y0.3664 
G01 X0.8276 Y0.3733 
G01 X0.8042 Y0.3818 
G01 X0.7814 Y0.3916 
G01 X0.7592 Y0.4029 
G01 X0.7378 Y0.4156 
G01 X0.7172 Y0.4296 
G01 X0.6975 Y0.4448 
G01 X0.6789 Y0.4613 
G01 X0.6613 Y0.4789 
G00 Z0.1000 
G00 X0.7275 Y0.5130 
G01 Z-0.0070 F10.00 
G01 X0.7428 Y0.4995 F20.00 
G01 X0.7589 Y0.4870 
G01 X0.7758 Y0.4755 
G01 X0.7934 Y0.4652 
G01 X0.8116 Y0.4559 
G01 X0.8303 Y0.4478 
G01 X0.8496 Y0.4409 
G01 X0.8692 Y0.4352 
G01 X0.8891 Y0.4307 
G01 X0.9093 Y0.4275 
G01 X0.9296 Y0.4256 
G01 X0.9500 Y0.4249 
G01 X0.9704 Y0.4256 
G01 X0.9907 Y0.4275 
G01 X1.0109 Y0.4307 
G01 X1.0308 Y0.4352 
G01 X1.0504 Y0.4409 
G01 X1.0697 Y0.4478 
G01 X1.0884 Y0.4559 
G01 X1.1066 Y0.4652 
G01 X1.1242 Y0.4755 
G01 X1.1411 Y0.4870 
G01 X1.1572 Y0.4995 
G01 X1.1725 Y0.5130 
G01 X1.1870 Y0.5275 
G01 X1.2005 Y0.5428 
G01 X1.2130 Y0.5589 
G01 X1.2245 Y0.5758 
G01 X1.2348 Y0.5934 
G01 X1.2441 Y0.6116 
G01 X1.2522 Y0.6303 
G01 X1.2591 Y0.6496 
G01 X1.2648 Y0.6692 
G01 X1.2693 Y0.6891 
G01 X1.2725 Y0.7093 
G01 X1.2744 Y0.7296 
G01 X1.2751 Y0.7500 
G01 X1.2744 Y0.7704 
G01 X1.2725 Y0.7907 
G01 X1.2693 Y0.8109 
G01 X1.2648 Y0.8308 
G01 X1.2591 Y0.8504 
G01 X1.2522 Y0.8697 
G01 X1.2441 Y0.8884 
G01 X1.2348 Y0.9066 
G01 X1.2245 Y0.9242 
G01 X1.2130 Y0.9411 
G01 X1.2005 Y0.9572 
G01 X1.1870 Y0.9725 
G01 X1.1725 Y0.9870 
G01 X1.1572 Y1.0005 
G01 X1.1411 Y1.0130 
G01 X1.1242 Y1.0245 
G01 X1.1066 Y1.0348 
G01 X1.0884 Y1.0441 
G01 X1.0697 Y1.0522 
G01 X1.0504 Y1.0591 
G01 X1.0308 Y1.0648 
G01 X1.0109 Y1.0693 
G01 X0.9907 Y1.0725 
G01 X0.9704 Y1.0744 
G01 X0.9500 Y1.0751 
G01 X0.9296 Y1.0744 
G01 X0.9093 Y1.0725 
G01 X0.8891 Y1.0693 
G01 X0.8692 Y1.0648 
G01 X0.8496 Y1.0591 
G01 X0.8303 Y1.0522 
G01 X0.8116 Y1.0441 
G01 X0.7934 Y1.0348 
G01 X0.7758 Y1.0245 
G01 X0.7589 Y1.0130 
G01 X0.7428 Y1.0005 
G01 X0.7275 Y0.9870 
G01 X0.7130 Y0.9725 
G01 X0.6995 Y0.9572 
G01 X0.6870 Y0.9411 
G01 X0.6755 Y0.9242 
G01 X0.6652 Y0.9066 
G01 X0.6559 Y0.8884 
G01 X0.6478 Y0.8697 
G01 X0.6409 Y0.8504 
G01 X0.6352 Y0.8308 
G01 X0.6307 Y0.8109 
G01 X0.6275 Y0.7907 
G01 X0.6256 Y0.7704 
G01 X0.6249 Y0.7500 
G01 X0.6256 Y0.7296 
G01 X0.6275 Y0.7093 
G01 X0.6307 Y0.6891 
G01 X0.6352 Y0.6692 
G01 X0.6409 Y0.6496 
G01 X0.6478 Y0.6303 
G01 X0.6559 Y0.6116 
G01 X0.6652 Y0.5934 
G01 X0.6755 Y0.5758 
G01 X0.6870 Y0.5589 
G01 X0.6995 Y0.5428 
G01 X0.7130 Y0.5275 
G01 X0.7275 Y0.5130 
G00 Z0.1000 
G00 X0.6642 Y0.4686 
G01 Z-0.0070 F10.00 
G01 X0.6473 Y0.4869 F20.00 
G01 X0.6315 Y0.5063 
G01 X0.6170 Y0.5265 
G01 X0.6037 Y0.5477 
G01 X0.5918 Y0.5696 
G01 X0.5813 Y0.5922 
G01 X0.5722 Y0.6154 
G01 X0.5646 Y0.6392 
G01 X0.5584 Y0.6634 
G01 X0.5538 Y0.6879 
G01 X0.5507 Y0.7126 
G01 X0.5491 Y0.7375 
G01 X0.5491 Y0.7625 
G01 X0.5507 Y0.7874 
G01 X0.5538 Y0.8121 
G01 X0.5584 Y0.8366 
G01 X0.5646 Y0.8608 
G01 X0.5722 Y0.8846 
G01 X0.5813 Y0.9078 
G01 X0.5918 Y0.9304 
G01 X0.6037 Y0.9523 
G01 X0.6170 Y0.9735 
G01 X0.6315 Y0.9937 
G01 X0.6473 Y1.0131 
G01 X0.6642 Y1.0314 
G01 X0.6823 Y1.0486 
G01 X0.7013 Y1.0647 
G01 X0.7214 Y1.0795 
G01 X0.7423 Y1.0931 
G01 X0.7640 Y1.1053 
G01 X0.7865 Y1.1162 
G01 X0.8096 Y1.1257 
G01 X0.8332 Y1.1337 
G01 X0.8573 Y1.1402 
G01 X0.8817 Y1.1452 
G01 X0.9064 Y1.1487 
G01 X0.9313 Y1.1506 
G01 X0.9562 Y1.1510 
G01 X0.9812 Y1.1498 
G01 X1.0060 Y1.1471 
G01 X1.0305 Y1.1429 
G01 X1.0548 Y1.1371 
G01 X1.0787 Y1.1299 
G01 X1.1020 Y1.1211 
G01 X1.1248 Y1.1110 
G01 X1.1469 Y1.0994 
G01 X1.1683 Y1.0865 
G01 X1.1888 Y1.0722 
G01 X1.2083 Y1.0568 
G01 X1.2269 Y1.0401 
G01 X1.2444 Y1.0224 
G01 X1.2608 Y1.0035 
G01 X1.2759 Y0.9837 
G01 X1.2898 Y0.9630 
G01 X1.3024 Y0.9415 
G01 X1.3136 Y0.9192 
G01 X1.3234 Y0.8962 
G01 X1.3318 Y0.8727 
G01 X1.3387 Y0.8488 
G01 X1.3441 Y0.8244 
G01 X1.3480 Y0.7998 
G01 X1.3503 Y0.7749 
G01 X1.3511 Y0.7500 
G01 X1.3503 Y0.7251 
G01 X1.3480 Y0.7002 
G01 X1.3441 Y0.6756 
G01 X1.3387 Y0.6512 
G01 X1.3318 Y0.6273 
G01 X1.3234 Y0.6038 
G01 X1.3136 Y0.5808 
G01 X1.3024 Y0.5585 
G01 X1.2898 Y0.5370 
G01 X1.2759 Y0.5163 
G01 X1.2608 Y0.4965 
G01 X1.2444 Y0.4776 
G01 X1.2269 Y0.4599 
G01 X1.2083 Y0.4432 
G01 X1.1888 Y0.4278 
G01 X1.1683 Y0.4135 
G01 X1.1469 Y0.4006 
G01 X1.1248 Y0.3890 
G01 X1.1020 Y0.3789 
G01 X1.0787 Y0.3701 
G01 X1.0548 Y0.3629 
G01 X1.0305 Y0.3571 
G01 X1.0060 Y0.3529 
G01 X0.9812 Y0.3502 
G01 X0.9562 Y0.3490 
G01 X0.9313 Y0.3494 
G01 X0.9064 Y0.3513 
G01 X0.8817 Y0.3548 
G01 X0.8573 Y0.3598 
G01 X0.8332 Y0.3663 
G01 X0.8096 Y0.3743 
G01 X0.7865 Y0.3838 
G01 X0.7640 Y0.3947 
G01 X0.7423 Y0.4069 
G01 X0.7214 Y0.4205 
G01 X0.7013 Y0.4353 
G01 X0.6823 Y0.4514 
G01 X0.6642 Y0.4686 
G00 Z0.1000 
G00 X0.7219 Y0.5255 
G01 Z-0.0070 F10.00 
G01 X0.7363 Y0.5117 F20.00 
G01 X0.7516 Y0.4989 
G01 X0.7676 Y0.4870 
G01 X0.7843 Y0.4762 
G01 X0.8016 Y0.4664 
G01 X0.8195 Y0.4578 
G01 X0.8379 Y0.4502 
G01 X0.8568 Y0.4438 
G01 X0.8760 Y0.4386 
G01 X0.8955 Y0.4346 
G01 X0.9152 Y0.4318 
G01 X0.9351 Y0.4303 
G01 X0.9550 Y0.4300 
G01 X0.9749 Y0.4309 
G01 X0.9947 Y0.4331 
G01 X1.0143 Y0.4365 
G01 X1.0336 Y0.4411 
G01 X1.0527 Y0.4469 
G01 X1.0713 Y0.4538 
G01 X1.0895 Y0.4619 
G01 X1.1071 Y0.4712 
G01 X1.1242 Y0.4815 
G01 X1.1405 Y0.4928 
G01 X1.1562 Y0.5052 
G01 X1.1710 Y0.5185 
G01 X1.1849 Y0.5327 
G01 X1.1980 Y0.5477 
G01 X1.2101 Y0.5635 
G01 X1.2212 Y0.5800 
G01 X1.2312 Y0.5972 
G01 X1.2402 Y0.6150 
G01 X1.2480 Y0.6333 
G01 X1.2547 Y0.6520 
G01 X1.2602 Y0.6712 
G01 X1.2645 Y0.6906 
G01 X1.2676 Y0.7103 
G01 X1.2694 Y0.7301 
G01 X1.2701 Y0.7500 
G01 X1.2694 Y0.7699 
G01 X1.2676 Y0.7897 
G01 X1.2645 Y0.8094 
G01 X1.2602 Y0.8288 
G01 X1.2547 Y0.8480 
G01 X1.2480 Y0.8667 
G01 X1.2402 Y0.8850 
G01 X1.2312 Y0.9028 
G01 X1.2212 Y0.9200 
G01 X1.2101 Y0.9365 
G01 X1.1980 Y0.9523 
G01 X1.1849 Y0.9673 
G01 X1.1710 Y0.9815 
G01 X1.1562 Y0.9948 
G01 X1.1405 Y1.0072 
G01 X1.1242 Y1.0185 
G01 X1.1071 Y1.0288 
G01 X1.0895 Y1.0381 
G01 X1.0713 Y1.0462 
G01 X1.0527 Y1.0531 
G01 X1.0336 Y1.0589 
G01 X1.0143 Y1.0635 
G01 X0.9947 Y1.0669 
G01 X0.9749 Y1.0691 
G01 X0.9550 Y1.0700 
G01 X0.9351 Y1.0697 
G01 X0.9152 Y1.0682 
G01 X0.8955 Y1.0654 
G01 X0.8760 Y1.0614 
G01 X0.8568 Y1.0562 
G01 X0.8379 Y1.0498 
G01 X0.8195 Y1.0422 
G01 X0.8016 Y1.0336 
G01 X0.7843 Y1.0238 
G01 X0.7676 Y1.0130 
G01 X0.7516 Y1.0011 
G01 X0.7363 Y0.9883 
G01 X0.7219 Y0.9745 
G01 X0.7084 Y0.9599 
G01 X0.6958 Y0.9445 
G01 X0.6842 Y0.9283 
G01 X0.6737 Y0.9115 
G01 X0.6642 Y0.8940 
G01 X0.6558 Y0.8759 
G01 X0.6485 Y0.8574 
G01 X0.6424 Y0.8384 
G01 X0.6375 Y0.8191 
G01 X0.6338 Y0.7996 
G01 X0.6313 Y0.7798 
G01 X0.6301 Y0.7600 
G01 X0.6301 Y0.7400 
G01 X0.6313 Y0.7202 
G01 X0.6338 Y0.7004 
G01 X0.6375 Y0.6809 
G01 X0.6424 Y0.6616 
G01 X0.6485 Y0.6426 
G01 X0.6558 Y0.6241 
G01 X0.6642 Y0.6060 
G01 X0.6737 Y0.5885 
G01 X0.6842 Y0.5717 
G01 X0.6958 Y0.5555 
G01 X0.7084 Y0.5401 
G01 X0.7219 Y0.5255 
G00 Z0.1000 
G00 Z0.5000 
M05
M02
